X:99
T:99 My Skiff is on de Shore
C:Michael Turner's MS
I:abc2nwc
M:3/8
L:1/16
K:F
c2||c3 =B dc|A4c2|f2A2d2|c4B2|A3 G cB|E2G2B2|d2c2=B2|c3AF2|
c3 =B dc|A4c2|f2A2d2|c4B2|g4f2|e2d2c2|B2A2G2|F4z2||
G3 A G^F|Gd e3 e|ef d2d2|de c2c2|G3 A G^F|
Gd e3 e|ef d2d2|de c2c2|c=B_B AB"DC" |]

